X:1
T:Title
%%score 1 { 2 | 3 }
L:1/8
Q:1/4=100
M:6/8
K:G
V:1 treble nm="Grand Piano, Soprano"
V:2 bass nm="Choir Pad, Only a Song"
V:3 bass 
V:1
 [Bd][Ac][GB] [GB][FA][GB] | [Ac] [CE]2- [CE]2- [CE]/ z/ | [B,D][CE][B,D] [B,D][Bd][Ac] | [GB]6 | %4
w: By~Charles~Clinton~Case * * * * *||||
 [Bd][Ac][GB] [GB][FA][=FB] | [Ec] [CE]2- [CE]2- [CE]/ z/ | [B,D][CE][B,D] [B,D][DB][CA] | [B,G]6 | %8
w: ||||
 [Bd]3- [Bd][Ac][GB] | [Ac]6 | [Ac]3- [Ac][GB][FA] | [GB]6 | [B,D]3- [B,D][DG][GB] | [Bd]3 [GB]3 | %14
w: ||||||
 [Ac]3- [Ac][GB][FA] | [GB]6 | [Bd]3- [Bd][Ac][GB] | [Ac]6 | [Ac]3- [Ac][GB][FA] | [GB]6 | %20
w: ||||||
 [B,D]3- [B,D][DG][GB] | [Bd]3 [GB]3 | [Ac]3- [Ac][GB][FA] | G6- | G3 z3 |] %25
w: |||||
V:2
 G,G,G, G,G,G, | G, G,2- G,2- G,/ z/ | G,G,G, G,G,F, | G,6 | G,G,G, G,G,G, | G, G,2- G,2- G,/ z/ | %6
 G,G,G, G,G,F, | G,6 | z6 | A,A,A, A,3 | z6 | G,G,G, G,3 | G,G,G, G,2 G, | G,G,G, G,2 G, | %14
 F,F,F, F,2 A, | G,G,G, G,3 | z6 | A,A,A, A,3 | z6 | G,G,G, G,3 | G,G,G, G,2 G, | %21
 G,G,G,[K:treble] D2 D | D3- DDC | B,6- | B,3 z3 |] %25
V:3
 G,,G,,G,, G,,G,,G,, | C, C,2- C,2- C,/ z/ | D,D,D, D,D,D, | G,,6 | G,,G,,G,, G,,G,,G,, | %5
 C, C,2- C,2- C,/ z/ | D,D,D, D,D,D, | G,,6 | z6 | D,D,D, D,3 | z6 | G,,G,,G,, G,,3 | %12
 G,,G,,G,, G,,2 G,, | G,,G,,G,, G,,2 G,, | D,D,D, D,2 D, | G,,G,,G,, G,,3 | z6 | D,D,D, D,3 | z6 | %19
 G,,G,,G,, G,,3 | G,,G,,G,, G,,2 G,, | G,,G,,G,, G,,2 G,, | D,3- D,D,D, | G,,6- | G,,3 z3 |] %25

